!!!!SEGMENT: artfugue-015.krn
!!!COM: Bach, Johann Sebastian
!!!CDT: 1685/03/31-1750/07/28
!!!OPR@@DE: Die Kunst der Fuge
!!!OPR@EN: The Art of the Fugue
!!!OTL: Contrpunctus XV: Canon in Augmentation in Inversion
!!!SCA: BWV 1080
!!!voices: 2
!!!AGN: Canon
**kern	**kern
*staff2	*staff1
*part2	*part1
*I"	*I"
*clefF4	*clefG2
*k[b-]	*k[b-]
*d:	*d:
*M2/2	*M2/2
*met(c|)	*met(c|)
*mmet(c|)	*mmet(c|)
*MM80	*MM80
=1	=1
1r	8dL
.	8b-J
.	2a
.	4g
=2	=2
1r	8fL
.	16eL
.	16dJJ
.	2e-X
.	4d
=3	=3
1r	(8c#XL
.	16dL
.	16enJJ)
.	2d
.	4e
=4	=4
1r	8fL
.	8AJ
.	2g
.	8fL
.	8eJ
=5	=5
4A	16fLL
.	16gJJ
.	4a
4C#X	.
.	8g
[2D	8fL
.	8ddJ
.	8gL
.	8eeJ
!!LO:LB:g=original
=6	=6
2D]	8aL
.	8ff
.	8bn
.	8ddJ
2E	8ccL
.	8b-X
.	8gg
.	8b-J
=7	=7
4F#X	16aLL
.	16ee-XJJ
.	4dd
8GL	.
8AJ	8cc
[2G	8b-L
.	8ggJ
.	8ccL
.	8aaJ
=8	=8
2G]	8ddL
.	8bb-
.	8ee
.	8ggJ
2A	8ffL
.	8ee-X
.	8ccc
.	8ee-J
=9	=9
4B-	8dd
.	4d
8AL	.
8GJ	8e
[2A	8fL
.	8a
.	8dd
.	8ffJ
=10	=10
2A]	8gL
.	8eeJ
.	8fL
.	8ddJ
2G	8eL<
.	8cc#X
.	8dd
.	8eeJ
!!LO:LB:g=original
=11	=11
4F	8aL
.	16ddL
.	16ccJ
4d	8b-
.	8aJ
[2E	8gL
.	16ggL
.	16ffJ
.	8ee
.	8ddJ
=12	=12
2E]	8cc#XL
.	16eeL
.	16ddJ
.	8cc#
.	8bnJ
4F	8aL
.	16aaL
.	16ggJJ
4G	16ffLL
.	16ee
.	16dd
.	16cc#XJJ
=13	=13
8FL	4dd
8EJ	.
2D	4r
.	8d
.	4b-
4E	.
.	16aLL
.	16gJJ
=14	=14
4F	16aLL
.	16fJJ
.	4d
4AA	.
.	16eLL
.	16fJJ
4E	16gLL
.	16eJJ
.	4c#X
4GG	.
.	16dLL
.	16eJJ
!!LO:LB:g=original
=15	=15
4D	16fLL
.	16eJJ
.	4d
4FF	.
.	(8dd
4C	8ee-XL
.	8een
4AA	8ff
.	8ff#XJ
=16	=16
4BBn	8ggL
.	8gg#X
4C	8aa
.	[8bb-J
4EE	8bb-L])
.	16aaL
.	16ggnJ
4C#X	8aa
.	8eeJ
=17	=17
8DL	16ffLL
.	16eeJJ
8GG#XJ	4dd
2AA	.
.	16ccLL
.	16bnJJ
.	8cc
.	4ff
4BBn	.
.	16eeLL
.	16ddJJ
=18	=18
4C	16eeLL
.	16ccJJ
.	4a
4EE	.
.	16bnLL
.	16ccJJ
4BBn	16ddLL
.	16bJJ
.	4g#X
4DD	.
.	16aLL
.	16bJJ
!!LO:LB:g=original
=19	=19
4AA	16ccLL
.	16bnJJ
.	4a
4CC	.
.	(8A
4GG	8B-XL
.	8Bn
4EE	8c
.	8c#XJ
=20	=20
4FF#X	8dL
.	8d#X
4GG	8e
.	[8fJ
4BBBn	8fL])
.	16eL
.	16dnJ
4GG#X	8e
.	8BnJ
=21	=21
4AA	16cLL
.	16BnJ
.	8AJ
2A	8r
.	8cc
.	8dL
.	8b-X
4G	8e
.	([8b-J
=22	=22
4F	16b-LL]
.	16a
.	16g
.	16aJJ
4D	16b-LL
.	16a
.	16b-
.	16bnJJ
4AA	16ccLL
.	16b
.	16cc
.	16cc#XJJ
4FF	8ddL)
.	8dJ
!!LO:LB:g=original
=23	=23
.	(8qqe/
4E	(8dL)
.	8c#XJ)
4GG	8r
.	8e
.	(8qqf/
4F	(8eL)
.	8dJ)
4AA	8r
.	8f
=24	=24
.	(8qqg/
4G	8f)
.	4e
4BB-	.
.	[8dd
4AA	8ddL]
.	16cc#XL
.	16ddJJ
4GG	8eeL
.	[8gJ
=25	=25
4D	8gL]
.	16fL
.	16eJJ
8AAL	[4f
8BBnJ	.
4C	8fL]
.	16eL
.	16dJ
4D	8c
.	8BnJ
=26	=26
4E	8cL
.	16ccL
.	16bnJJ
8EEL	[4cc
8FF#XJ	.
4GG	8ccL]
.	16b-XL
.	16aJ
4AA	8g
.	8f#XJ
!!LO:LB:g=original
=27	=27
4BB-	8gL
.	16ggL
.	16ff#XJJ
8GGL	[4gg
8AAJ	.
4BBn	8gg]
.	4ffn
4C#X	.
.	8ee
=28	=28
4D/	8ffL
.	16bb-L
.	16aaJJ
8DDL	[4bb-
8EEJ	.
8FFL	16bb-LL]
.	(16aa
8GG	16gg
.	16ff
8AA	16ee
.	16dd
8BB-J	16cc#X
.	16ddJJ)
=29	=29
2AA	(16cc#XLL
.	16ff
.	16ee
.	16dd#X
.	16ee
.	16ddn
.	16cc#
.	16ddJJ
2r	16ccnLL<
.	16bn
.	16cc
.	16b-X
.	16a
.	16b-
.	16a
.	16g#XJJ
!!LO:LB:g=original
=30	=30
4A	8aL)
.	(16c#XL
.	16dJ
2C#X	8e)
.	(16eL
.	16fJJ
.	16gLL
.	16aJJ
.	4b-/)
8DL	.
8EJ	16aLL
.	16gJJ
=31	=31
8DL	16fLL
.	16e
8FJ	16d
.	16e
2A	16f
.	16g
.	16a
.	16bnJJ
.	16cc#XLL
.	16b
.	16a
.	16b
8GL	16cc#
.	16dd
8FJ	16ee
.	16ffJJ
=32	=32
8EL	16ggLL
.	16ff
8GJ	16ee
.	16ff
2B-	16gg
.	16aa
.	16bb-
.	16aaJJ
.	16ggLL
.	16ff
.	16ee
.	16dd
8AL	16cc#X
.	16ddJ
8GJ	[8eeJ
!!LO:LB:g=original
=33	=33
8F#XL	8ee]
8G#XJ	4dd
2A	.
.	16ccnLL
.	16bnJJ
.	8cc
.	4ff
4AA	.
.	16eeLL
.	16dd#XJJ
=34	=34
4GG#X	8ee
.	4bn
4GGn	.
.	8cc#X
4FF#X	8dd
.	4a
4FFn	.
.	8bn
=35	=35
4EE	8cc
.	4g
4EE-X	.
.	8a
4DD	16b-XLL
.	16aJ
.	[8gJ
[4CC#X	16gLL]
.	16a
.	16g
.	16f#XJJ
=36	=36
4CC#]	8gL
.	8AJ
8DDL	8r
8EEJ	[8g
4DD	8gL]
.	16fL
.	16e
4GG	16d
.	16c#XJ
.	[8eJ
!!LO:LB:g=original
=37	=37
8FF#XL	16eLL]
.	16dJJ
8GG#XJ	4dd
2AA	.
.	16ccLL
.	16bnJJ
.	8ccL
.	16b-XL
.	16a
8BB-XL	16g
.	16f#XJ
8CJ	[8aJ
=38	=38
4BB-	16aLL]
.	16g
.	16a
.	16b-
2FF#X	16cc
.	16b-J
.	8aJ
.	8ee-X
.	4dd
8GGL	.
8AAJ	8cc
=39	=39
8GGL	16b-LL
.	16cc
8BB-J	16dd
.	16eenJJ
2D	16ff#XLL
.	16eeJ
.	8ddJ
.	8bb-
.	4aa
8CL	.
8BB-J	8gg
=40	=40
8AAL	16ff#XLL
.	16gg
8CJ	16aa
.	16bb-
2E-X	16ccc
.	16ee-X
.	16dd
.	16ccJJ
.	4.ff#mm
8DL	.
8CJ	16eenLL
.	16ff#JJ
!!LO:LB:g=original
=41	=41
8BBnL	[4gg
8C#XJ	.
2D	16ggLL]
.	(16ffn
.	16ee
.	16ggJJ
.	16ffLL
.	16ee
.	16dd
.	16cc#X
4d	16ccn
.	16b-X
.	16a
.	16g#XJJ)
=42	=42
4c#X	8aL
.	8aa
4cn	8dd
.	8ff#XJ
4Bn	8gL
.	8gg
4B-X	8cc
.	8eeJ
=43	=43
4A	8fL
.	8ff
4G#X	8bn
.	8ddJ
4Gn	8eL<
.	8ee
[4F#X	16aL
.	16cc#X
.	16dd
.	16ee-XJJ
=44	=44
4F#]	16ddLL
.	16bnJJ
.	4cc
8GL	.
8AJ	[8cc
4G	8cc]
.	4b-X
4c	.
.	[8a
!!LO:LB:g=original
=45	=45
8BnL	8a]
8c#XJ	4g
4d	.
.	16fLL
.	16eJJ
4r	8fL
.	16b-L
.	16a
4BB-X	16g
.	16f
.	16e
.	16dJJ
=46	=46
4A	16c#XLL
.	16dJ
.	8eJ
4C#X	8r
.	[8e
4G	16eLL]
.	16f
.	16e
.	16d
[4C#X	16e
.	16f
.	16g
.	16aJJ
=47	=47
8C#L>]	16b-LL
.	16a
8D	16g
.	16f#XJJ
8E	[4g
8DJ	.
8C#XL	16gLL]
.	16a
8D	16g
.	16fJJ
8C#	[4g
8CnJ	.
!!LO:LB:g=original
=48	=48
8BBnL	16gLL]
.	16a
8C	16g
.	16f#XJJ
8BB	8gL
8BB-XJ	[8ggJ
4AA	16ggLL]
.	16dd
.	16cc#X
.	16bnJJ
4A	16aLL
.	16cc#
.	16ee
.	16ggJJ
=49	=49
(4A	16ffLL
.	16ee
.	16dd
.	16cc#XJJ
4B-)	8ddL
.	8b-J
4r	16aLL
.	16gJJ
.	4ee-X
4G	.
.	[8dd
=50	=50
(4G#X	8ddL]
.	16cc#XL
.	16bnJJ
4A)	8cc#L
.	8aJ
4r	16gLL
.	16fJJ
.	4dd
4F	.
.	[8ccn
!!LO:LB:g=original
=51	=51
(4F#X	8ccL]
.	16bnL
.	16aJJ
2G)	8bL
.	8gJ
.	16fLL
.	16e
.	16g
.	16b-XJJ
[4AA	16cc#XLL
.	16g
.	16f
.	16eJJ
=52	=52
4AA]	16dLL
.	16BnJ
.	[8c#XJ
8BB-XL	16c#LL]
.	16d
8AAJ	16e
.	16fJJ
4GG	16eLL
.	16c#JJ
.	4b-X/
4E	.
.	16aLL
.	16gJJ
=53||	=53||
8DL	8fL
8B-J	8e
2A	8f
.	8dJ
.	2c#Xm
4G	.
=54	=54
(8FL	4d
16EL	.
16DJJ)	.
2E-X	4r
.	2r
4D	.
!!pagebreak:original
=55	=55
(8C#XL	1r
16DL	.
16EnJJ)	.
2D	.
4E	.
=56	=56
8FL	1r
8AAJ	.
2G	.
8FL	.
8EJ	.
=57	=57
16FLL	4aa
16GJJ	.
4A	.
.	4cc#X
8G	.
8FL	[2dd
8dJ	.
8GL	.
8eJ	.
=58	=58
8AL	2dd]
8f	.
8Bn	.
8dJ	.
8cL	2ee
8B-X	.
8g	.
8B-J	.
=59	=59
16ALL	4ff#X
16e-XJJ	.
4d	.
.	8ggL
*clefG2	*
8c	8aaJ
8B-L	[2gg
8gJ	.
8cL	.
8aJ	.
!!LO:LB:g=original
=60	=60
8dL	2gg]
8b-	.
8e	.
8gJ	.
8fL	2aa
8e-X	.
8cc	.
8e-J	.
=61	=61
8d	4bb-
*clefF4	*
4D	.
.	8aaL
8E	8ggJ
8FL	[2aa
8A	.
8d	.
8fJ	.
=62	=62
8GL	2aa]
8eJ	.
8FL	.
8dJ	.
8EL	2gg
8c#X	.
8d	.
8eJ	.
=63	=63
8AL	4ff
16dL	.
16cnJ	.
8B-	4ddd
8AJ	.
8GL	[2ee
16gL	.
16fJ	.
8e	.
8dJ	.
!!LO:LB:g=original
=64	=64
8c#XL	2ee]
16eL	.
16dJ	.
8c#	.
8BnJ	.
8AL	4ff
16aL	.
16gJJ	.
16fLL	4gg
16e	.
16d	.
16c#XJJ	.
=65	=65
4d	8ffL
.	8eeJ
4r	2dd
8D	.
4B-	.
.	4ee
16ALL	.
16GJJ	.
=66	=66
16ALL	4ff
16FJJ	.
4D	.
.	4a
16ELL	.
16FJJ	.
16GLL	4ee
16EJJ	.
4C#X	.
.	4g
16DLL	.
16EJJ	.
=67	=67
16FLL	4dd
16EJJ	.
4D	.
.	4f
*clefG2	*
(8d	.
8e-XL	4cc
8en	.
8f	4a
8f#XJ	.
!!LO:LB:g=original
=68	=68
8gL	4bn
8g#X	.
8a	4cc
[8b-J	.
8b-L])	4e
16aL	.
16gnJJ	.
8aL	4cc#X
8eJ	.
=69	=69
16fLL	8ddL
16eJJ	.
4d	8g#XJ
.	2a
16cLL	.
16BnJJ	.
8c	.
4f	.
.	4bn
16eLL	.
16dJJ	.
=70	=70
16eLL	4cc
16cJJ	.
4A	.
.	4e
16BnLL	.
16cJJ	.
16dLL	4bn
16BJJ	.
4G#X	.
.	4d
16ALL	.
16BJJ	.
=71	=71
16cLL	4a
16BnJJ	.
4A	.
.	4c
*clefF4	*
(8AA	.
8BB-XL	4g
8BBn	.
8C	4e
8C#XJ	.
!!LO:LB:g=original
=72	=72
8DL	4f#X
8D#X	.
8E	4g
[8FJ	.
8FL])	4Bn
16EL	.
16DnJJ	.
8EL	4g#X
8BBnJ	.
=73	=73
16CLL	4a
16BBnJ	.
8AAJ	.
8r	2aa
8c	.
8DL	.
8B-X	.
8E	4gg
[8B-J	.
=74	=74
16B-LL]	4ff
16A	.
16G	.
16AJJ	.
16B-LL	4dd
16A	.
16B-	.
16BnJJ	.
16cLL	4a
16B	.
16c	.
16c#XJJ	.
8dL	4f
8DJ	.
!!LO:LB:g=original
=75	=75
(8qqE/	.
(8DL)	4ee
8C#XJ)	.
8r	4g
8E	.
(8qqF/	.
(8EL)	4ff
8DJ)	.
8r	4a
8F	.
=76	=76
(8qqG/	.
(8F)	4gg
4E)	.
.	4b-
[8d	.
8dL]	4a
16c#XL	.
16dJ	.
8e	4g
[8GJ	.
=77	=77
8GL]	4dd
16FL	.
16EJJ	.
[4F	8aL
.	8bnJ
8FL]	4cc
16EL	.
16DJ	.
8C	4dd
8BBnJ	.
=78	=78
8CL	4ee
16cL	.
16BnJJ	.
[4c	8eL
.	8f#XJ
8cL]	4g
16B-XL	.
16AJ	.
8G	4a
8F#XJ	.
!!LO:LB:g=original
=79	=79
8G	4b-
*clefG2	*
16gLL	.
16f#XJJ	.
[4g	8gL
.	8aJ
8g]	4bn
4fn	.
.	4cc#X
8e	.
=80	=80
8fL	4dd
16b-L	.
16aJJ	.
[4b-	8dL
.	8eJ
16b-LL]	8fL
(16a	.
16g	8g
16fJJ	.
16eLL	8a
16d	.
16c#X	8b-J
16dJJ)	.
=81	=81
(16c#XLL	2a
16f	.
16e	.
16d#XJJ	.
16eLL	.
16dn	.
16c#	.
16dJJ	.
16cnLL	2r
16Bn	.
16c	.
16B-XJJ	.
16ALL	.
16B-	.
16A	.
16G#XJJ	.
!!pagebreak:original
=82	=82
8A)	4aa
*clefF4	*
(16C#XLL	.
16DJ	.
8E)	2cc#X
(16EL	.
16FJJ	.
16GLL	.
16AJJ	.
4B-)	.
.	8ddL
16ALL	8eeJ
16GJJ	.
=83	=83
16FLL	8ddL
16E	.
16D	8ffJ
16E	.
16F	2aa
16G	.
16A	.
16BnJJ	.
16c#XLL	.
16B	.
16A	.
16BJJ	.
*clefG2	*
16c#XLL	8ggL
16d	.
16e	8ffJ
16fJJ	.
=84	=84
16gLL	8eeL
16f	.
16e	8ggJ
16f	.
16g	2bb-
16a	.
16b-	.
16aJJ	.
16gLL	.
16f	.
16e	.
16d	.
16c#X	8aaL
16dJ	.
[8eJ	8ggJ
!!LO:LB:g=original
=85	=85
8e]	8ff#XL
4d	8gg#XJ
.	2aa
16cnLL	.
16BnJJ	.
8c	.
4f	.
.	4a
16eLL	.
16d#XJJ	.
=86	=86
8e	4g#X
4Bn	.
.	4gn
8c#X	.
8d	4f#X
*clefF4	*
4A	.
.	4fn
8Bn	.
=87	=87
8c	4e
4G	.
.	4e-X
8A	.
16B-XLL	4d
16AJ	.
[8GJ	.
16GLL]	[4c#X
16A	.
16G	.
16F#XJJ	.
=88	=88
8GL	4c#]
8AAJ	.
8r	8dL
[8G	8eJ
8GL]	4d
16FL	.
16E	.
16D	4g
16C#XJ	.
[8EJ	.
!!LO:LB:g=original
=89	=89
16ELL]	8f#XL
16DJJ	.
4d	8g#XJ
.	2a
16cLL	.
16BnJJ	.
8cL	.
16B-XL	.
16A	.
16G	8b-XL
16F#XJ	.
[8AJ	8ccJ
=90	=90
16ALL]	4b-
16G	.
16A	.
16B-	.
16c	2f#X
16B-J	.
8AJ	.
8e-X	.
4d	.
.	8gL
*clefG2	*
8c	8aJ
=91	=91
16B-LL	8gL
16c	.
16d	8b-J
16eJJ	.
16f#XLL	2dd
16eJ	.
8dJ	.
8b-/	.
4a	.
.	8ccL
8g	8b-J
=92	=92
16f#XLL	8aL
16g	.
16a	8ccJ
16b-	.
16cc	2ee-X
16e-X	.
16d	.
16cJJ	.
4.f#Xmm	.
.	8ddL
16enLL	8ccJ
16f#JJ	.
!!LO:LB:g=original
=93	=93
[4g	8bnL
.	8cc#XJ
16gLL]	2dd
16fn	.
16e	.
16gJJ	.
16fLL	.
16e	.
16d	.
16c#X	.
16cn	4ddd
16B-X	.
16A	.
16G#XJJ	.
=94	=94
8AL	4ccc#X
8a	.
8d	4cccn
8f#XJ	.
8GL	4bbn
8g	.
8c	4bb-X
8eJ	.
*clefF4	*
=95	=95
8FL	4aa
8f	.
8Bn	4gg#X
8dJ	.
8EL	4ggn
8eJ	.
16ALL	[4ff#X
16c#X	.
16d	.
16e-XJJ	.
=96	=96
16dLL	4ff#]
16BnJJ	.
4c	.
.	8ggL
[8c	8aaJ
8c]	4gg
4B-X	.
.	4ccc
[8A	.
!!LO:LB:g=original
=97	=97
8A]	8bbnL
4G	8ccc#XJ
.	4ddd
16FLL	.
16EJJ	.
8FL	4r
16B-L	.
16A	.
16G	4b-X
16F	.
16E	.
16DJJ	.
=98	=98
16C#XLL	4aa
16DJ	.
8EJ	.
8r	4cc#X
[8E	.
16ELL]	4gg
16F	.
16E	.
16D	.
16E	[4cc#X
16F	.
16G	.
16AJJ	.
=99	=99
16B-LL	8cc#L]
16A	.
16G	8dd
16F#XJJ	.
[4G	8ee
.	8ddJ
16GLL]	8cc#XL
16A	.
16G	8dd
16F#JJ	.
[4G	8cc#
.	8ccnJ
=100	=100
16GLL]	8bnL
16A	.
16G	8cc
16F#XJJ	.
8GL	8b
[8gJ	8b-XJ
16gLL]	4a
16d	.
16c#X	.
16BnJJ	.
16ALL	4aa
16c#	.
16e	.
16gJJ	.
!!LO:LB:g=original
=101	=101
16fLL	(4aa
16e	.
16d	.
16c#XJJ	.
8dL	4bb-)
8B-J	.
16ALL	4r
16GJJ	.
4e-X	.
.	4gg
[8d	.
=102	=102
8dL]	(4gg#X
16c#XL	.
16BnJ	.
8c#	4aa)
8AJ	.
16GLL	4r
16FJJ	.
4d	.
.	4ff
[8cn	.
=103	=103
8cL]	(4ff#X
16BnL	.
16AJ	.
8B	2gg)
8GJ	.
16FLL	.
16E	.
16G	.
16B-X	.
16c#X	[4a
16G	.
16F	.
16EJJ	.
=104	=104
16DLL	4a]
16BBnJ	.
[>8C#XJ	.
16C#LL]	8b-XL
16D	.
16E	8aJ
16FJJ	.
16ELL	4g
16C#JJ	.
4B-X	.
.	4ee
16ALL	.
16GJJ	.
!!LO:LB:g=original
=105	=105
8FL	8ddL
8E	8bb-J
8F	2aa
8DJ	.
2C#Xm	.
.	4gg
=106	=106
4.D	8ffL
.	16eeL
.	16ddJJ
.	2ee-X
16CLL	.
16BBnJJ	.
8CL	.
16BB-XL	.
16AAJJ	.
8BB-L	4dd
16GL	.
16F#XJJ	.
=107	=107
4.G	8cc#XL
.	16ddL
.	16eenJJ
.	2dd
16FnLL	.
16EJJ	.
8FL	.
16EL	.
16DJJ	.
8C#XL	4ee
16AL	.
16G#XJJ	.
=108	=108
8AL	8ffL
16dL	8aJ
16cJJ	.
8B-L	2gg
16AL	.
16GJJ	.
4A	.
4AA	8ffL
.	8eeJ
=109	=109
1D;	1dd;
==	==
*-	*-
!!!RDF**kern: > = above
!!!RDF**kern: < = below
!!!system-decoration: {(s1,s2)}
!!!URL-pdf: https://vmirror.imslp.org/files/imglnks/usimg/8/88/IMSLP504269-PMLP05843-BGA-25.1.pdf#page=71 @{SMS1}
!!!URL-pdf: https://s9.imslp.org/files/imglnks/usimg/1/1d/IMSLP469177-PMLP5843-Bach,_J.S._-_The_Art_of_the_Fugue.pdf#page=79 @{SMS2}
!!!URL-youtube: https://www.youtube.com/watch?v=OMtjlaDEMdI&t=4095s Netherlands Bach Society/Malinowski
!!!URL-youtube: https://www.youtube.com/watch?v=N6sUlZa-IrU&t=4095s Netherlands Bach Society
!!!URL-youtube: https://www.youtube.com/watch?v=lBIytghyRGM  Barbara Harbach, organ (2014)
!!!SMS: @{SMS2}
!!!SMS1: Bach-Gesellschaft Ausgabe, Band 25.1 Leipzig: Breitkopf und Härtel, 1878. Plate B.W. XXV (1).
!!!SMS2: Bach-Gesellschaft Ausgabe, Band 47 Leipzig: Breitkopf und Härtel, 1926. Plate B.W. XLVII.
!!!PED: Wilhelm Rust
!!!PED-ODT: 1822-1892
!!!ONB: Die Kunst der Fuge nach dem Berliner Autograph in Anordnung und Lesarten
!!!ENC: Craig Stuart Sapp
!!!END: 2024/03/25
!!!EED: Craig Stuart Sapp
!!!EEV: 2024/03/28
!!!title: @{OPR} (@{SCA}), @{OTL}
